X: 2
T: Missa Preter rerum / Gloria
N: Derived from Das1002b-Missa_Preter_rerum-Gloria.krn
C: Ludwig Daser
%%abc-version 2.0
%%abcx-abcm2ps-target-version 5.9.1 (29 Sep 2008)
%%abc-creator hum2abc beta
%%abcx-conversion-date 2019/02/16 20:30:01
%%abc-edited-by Jesse Rodin
%%abc-edited-by Stephanie P. Schlagel 2016/05/22
%%abcx-initial-encoding-date 2016/05/22/
%%humdrum-veritas 3000063855
%%humdrum-veritas-data 1133159293
%%linebreak <none>
%%barnumbers 0
L: 1/4
M: 2/1
Q: 1/2=120
V: 1 clef=treble
V: 2 clef=treble-8
V: 3 clef=treble-8
V: 4 clef=treble-8
V: 5 clef=bass
V: 6 clef=bass
K: F
[V:1] G8- | 
[V:2] G6A2 | 
[V:3] z8 | 
[V:4] z8 | 
[V:5] z8 | 
[V:6] z8 | 
[V:1] G8 | 
[V:2] B4c4 | 
[V:3] z8 | 
[V:4] z8 | 
[V:5] z8 | 
[V:6] z8 | 
[V:1] G8 | 
[V:2] B2G2B2c2 | 
[V:3] z8 | 
[V:4] G6A2 | 
[V:5] z8 | 
[V:6] z8 | 
[V:1] G8 | 
[V:2] d4_e4 | 
[V:3] z8 | 
[V:4] B4c4 | 
[V:5] z8 | 
[V:6] z8 | 
[V:1] G8 | 
[V:2] d4G2c2- | 
[V:3] z8 | 
[V:4] B2G2B2c2 | 
[V:5] z8 | 
[V:6] z8 | 
[V:1] G8 | 
[V:2] c2B2c2g2- | 
[V:3] z8 | 
[V:4] d4_e4 | 
[V:5] z8 | 
[V:6] z8 | 
[V:1] A8 | 
[V:2] g2fef2e2 | 
[V:3] z8 | 
[V:4] d6A2 | 
[V:5] z8 | 
[V:6] z8 | 
[V:1] F8- | 
[V:2] d2f3ed2- | 
[V:3] z8 | 
[V:4] B2d3cB2- | 
[V:5] z8 | 
[V:6] z8 | 
[V:1] F8 | 
[V:2] d2cBc4 | 
[V:3] z8 | 
[V:4] B2AGA4 | 
[V:5] z8 | 
[V:6] z8 | 
[V:1] z8 | 
[V:2] d8 | 
[V:3] G8- | 
[V:4] G2B4c2 | 
[V:5] G,,6A,,2 | 
[V:6] z8 | 
[V:1] z8 | 
[V:2] z8 | 
[V:3] G8 | 
[V:4] d4_e4 | 
[V:5] B,,4C,4 | 
[V:6] z8 | 
[V:1] z8 | 
[V:2] z8 | 
[V:3] G8 | 
[V:4] d6c2 | 
[V:5] B,,2G,,2B,,2C,2 | 
[V:6] G,,6A,,2 | 
[V:1] z8 | 
[V:2] z8 | 
[V:3] G8 | 
[V:4] BAd4c2 | 
[V:5] D,4_E,4 | 
[V:6] B,,4C,4 | 
[V:1] z8 | 
[V:2] z8 | 
[V:3] G8 | 
[V:4] d4z4 | 
[V:5] D,4G,,2C,2- | 
[V:6] B,,2G,,2B,,2C,2 | 
[V:1] z8 | 
[V:2] z8 | 
[V:3] G8 | 
[V:4] z8 | 
[V:5] C,2B,,2C,2G,2- | 
[V:6] D,4_E,4 | 
[V:1] z8 | 
[V:2] z8 | 
[V:3] A8 | 
[V:4] z8 | 
[V:5] G,2F,E,F,2E,2 | 
[V:6] D,6A,,2 | 
[V:1] z8 | 
[V:2] z8 | 
[V:3] F8- | 
[V:4] z8 | 
[V:5] D,2F,3E,D,2- | 
[V:6] B,,2D,3C,B,,2- | 
[V:1] z8 | 
[V:2] z8 | 
[V:3] F8 | 
[V:4] z8 | 
[V:5] D,2C,B,,C,4 | 
[V:6] B,,2A,,G,,A,,4 | 
[V:1] G6A2 | 
[V:2] z8 | 
[V:3] B6c2 | 
[V:4] G8 | 
[V:5] D,2G,4F,E, | 
[V:6] G,,8- | 
[V:1] B4c4 | 
[V:2] z8 | 
[V:3] d4_e4 | 
[V:4] G8 | 
[V:5] D,4C,4 | 
[V:6] G,,4z4 | 
[V:1] B2G2B2c2 | 
[V:2] G6A2 | 
[V:3] d4z4 | 
[V:4] G8 | 
[V:5] G,4G,,4- | 
[V:6] z2G,4F,E, | 
[V:1] d4_e4 | 
[V:2] B4c4 | 
[V:3] z8 | 
[V:4] G8 | 
[V:5] G,,4z4 | 
[V:6] D,4C,4 | 
[V:1] d3cBAB2 | 
[V:2] B2G2g4 | 
[V:3] d4d2d2- | 
[V:4] G8 | 
[V:5] z8 | 
[V:6] G,4G,,4 | 
[V:1] A2F3GA2 | 
[V:2] f4z2f2 | 
[V:3] d2cBA2F2 | 
[V:4] A8 | 
[V:5] F,4F,2D,2- | 
[V:6] D,4D,4 | 
[V:1] D8 | 
[V:2] f2d3ef2 | 
[V:3] A2B3AF2 | 
[V:4] F8 | 
[V:5] D,E,F,2B,,4 | 
[V:6] D,2B,,3C,D,2 | 
[V:1] d4d2B2- | 
[V:2] B2G2z2g2- | 
[V:3] G8- | 
[V:4] B8 | 
[V:5] z2B,2B,2G,2- | 
[V:6] G,,8- | 
[V:1] Bcd2G4- | 
[V:2] gfd2_e4 | 
[V:3] G4z4 | 
[V:4] B8 | 
[V:5] G,A,B,2_E,4 | 
[V:6] G,,4z4 | 
[V:1] G2B3AGF | 
[V:2] d6_e2- | 
[V:3] z4z2G2 | 
[V:4] B8 | 
[V:5] z8 | 
[V:6] G,4G,2_E,2- | 
[V:1] G4F2D2 | 
[V:2] edd4cB | 
[V:3] GABcd2d2 | 
[V:4] B4A4- | 
[V:5] z4F,4 | 
[V:6] E,F,G,2D,4- | 
[V:1] F3GA4 | 
[V:2] A2d4c2 | 
[V:3] d4f4 | 
[V:4] A8 | 
[V:5] F,2D,3E,F,2 | 
[V:6] D,4z4 | 
[V:1] z2c4d2 | 
[V:2] c4z2d2 | 
[V:3] e6d2 | 
[V:4] G8- | 
[V:5] C,3D,E,F,G,2 | 
[V:6] z2C,2C,2B,,2 | 
[V:1] G2c4B2 | 
[V:2] e2c2g4 | 
[V:3] c2e2d4 | 
[V:4] G8 | 
[V:5] E,2G,3F,D,2- | 
[V:6] C,4G,,4 | 
[V:1] A2B4c2 | 
[V:2] d2f3ec2 | 
[V:3] z2d2d2c2 | 
[V:4] F8- | 
[V:5] D,2D,E,F,G,A,2 | 
[V:6] z2B,,2B,,2A,,2 | 
[V:1] F2B4A2 | 
[V:2] d2B2f4 | 
[V:3] B2d2c4 | 
[V:4] F8- | 
[V:5] D,2F,3E,C,2 | 
[V:6] B,,4F,,4 | 
[V:1] B2d2c2A2 | 
[V:2] d4z4 | 
[V:3] B4z4 | 
[V:4] F8 | 
[V:5] D,2B,,2C,4 | 
[V:6] B,,4A,,4 | 
[V:1] BAGFG2_E2 | 
[V:2] z8 | 
[V:3] z2B3AGF | 
[V:4] G8- | 
[V:5] D,4z2B,2- | 
[V:6] G,,8- | 
[V:1] D2G4G2 | 
[V:2] z2B3AGF | 
[V:3] G2_E2D2G2 | 
[V:4] G8- | 
[V:5] B,A,G,F,G,2_E,2 | 
[V:6] G,,8- | 
[V:1] G8- | 
[V:2] G2_E2D4 | 
[V:3] G3ABcd2 | 
[V:4] G8- | 
[V:5] D,2G,4F,E, | 
[V:6] G,,8- | 
[V:1] G8- | 
[V:2] z4d4 | 
[V:3] G2c4=B2 | 
[V:4] G8 | 
[V:5] D,C,_E,2D,4 | 
[V:6] G,,8 | 
[V:1] G8 | 
[V:2] _e2_e2_e4 | 
[V:3] c8 | 
[V:4] z8 | 
[V:5] C,4z4 | 
[V:6] C,4C,2C,2 | 
[V:1] z8 | 
[V:2] d2f4_ed | 
[V:3] A8 | 
[V:4] F4F2F2 | 
[V:5] z8 | 
[V:6] D,4D,4 | 
[V:1] z8 | 
[V:2] c2d4c2 | 
[V:3] z8 | 
[V:4] G4G4 | 
[V:5] z4z2C,2 | 
[V:6] _E,4E,4 | 
[V:1] F4F2F2 | 
[V:2] d8- | 
[V:3] z2f3edc | 
[V:4] A4A4 | 
[V:5] F,2D,3C,D,2 | 
[V:6] D,4z4 | 
[V:1] G4G4 | 
[V:2] d4z4 | 
[V:3] B2G2B2c2 | 
[V:4] G4z4 | 
[V:5] G,,2G,3F,G,2 | 
[V:6] z4z2C,2 | 
[V:1] A4A4 | 
[V:2] z2f3edc | 
[V:3] d8- | 
[V:4] F8 | 
[V:5] D,4z4 | 
[V:6] F,2D,3C,D,2 | 
[V:1] G4z4 | 
[V:2] B2G2B2c2 | 
[V:3] d4z4 | 
[V:4] G8 | 
[V:5] z4z2C,2 | 
[V:6] G,,2G,3F,G,2 | 
[V:1] F8 | 
[V:2] d8- | 
[V:3] z2f3edc | 
[V:4] A8 | 
[V:5] F,2D,3C,D,2 | 
[V:6] D,4z4 | 
[V:1] G8 | 
[V:2] d4z4 | 
[V:3] B2G2B2c2 | 
[V:4] G4z4 | 
[V:5] G,,2G,3F,G,2 | 
[V:6] z4z2C,2 | 
[V:1] A8 | 
[V:2] f4f2f2 | 
[V:3] d8 | 
[V:4] F8 | 
[V:5] D,4z4 | 
[V:6] F,2D,3C,D,2 | 
[V:1] G4z4 | 
[V:2] d2g2g2g2- | 
[V:3] z2d4d2 | 
[V:4] G3ABcB2- | 
[V:5] z2G,,2G,,2G,,2 | 
[V:6] G,,2G,3F,G,2 | 
[V:1] z4A4 | 
[V:2] g2^fe^f4 | 
[V:3] d8 | 
[V:4] B2AGA4 | 
[V:5] D,4z2D,2- | 
[V:6] D,8 | 
[V:1] B6AG | 
[V:2] g2G3ABc | 
[V:3] B4d4 | 
[V:4] G8 | 
[V:5] D,2E,2D,2G,2- | 
[V:6] G,,8 | 
[V:1] B2A2c3B | 
[V:2] def2g2f2- | 
[V:3] d4c4- | 
[V:4] z8 | 
[V:5] G,2D,2E,2F,2- | 
[V:6] z8 | 
[V:1] A2G4^F2 | 
[V:2] fed3cA2 | 
[V:3] c2B2A4 | 
[V:4] z8 | 
[V:5] F,2G,2D,4 | 
[V:6] z8 | 
[V:1] G8- | 
[V:2] B3cd2_e2- | 
[V:3] G8- | 
[V:4] z8 | 
[V:5] G,,4z4 | 
[V:6] G,,4G,,2C,2- | 
[V:1] G8- | 
[V:2] e2d4c2 | 
[V:3] G8- | 
[V:4] z8 | 
[V:5] z8 | 
[V:6] C,2B,,2C,2_E,2 | 
[V:1] G8 | 
[V:2] d2B4c2 | 
[V:3] G8- | 
[V:4] z8 | 
[V:5] G,,4G,,2C,2- | 
[V:6] D,2G,3F,_E,2- | 
[V:1] z8 | 
[V:2] G4z4 | 
[V:3] G8 | 
[V:4] z8 | 
[V:5] C,2B,,2C,2_E,2 | 
[V:6] E,2D,2_E,2G,2 | 
[V:1] D4D2G2- | 
[V:2] z8 | 
[V:3] z8 | 
[V:4] z8 | 
[V:5] D,2G,4F,_E, | 
[V:6] F,2B,4A,G, | 
[V:1] G2F2G2B2 | 
[V:2] z8 | 
[V:3] z8 | 
[V:4] D4D2G2- | 
[V:5] D,4G,,4 | 
[V:6] A,4G,2G,,2 | 
[V:1] A2A2G4- | 
[V:2] z4G4 | 
[V:3] z8 | 
[V:4] G2F2GABc | 
[V:5] z4z2G,2 | 
[V:6] D,4G,,4 | 
[V:1] G8- | 
[V:2] G2c4B2 | 
[V:3] z4G4 | 
[V:4] d2_e2d4 | 
[V:5] G,2C,2G,4 | 
[V:6] z4z2G,2 | 
[V:1] G4G4 | 
[V:2] c2_e2d4 | 
[V:3] G2c4B2 | 
[V:4] c4z2G2 | 
[V:5] C,4z4 | 
[V:6] G,2C,2G,4 | 
[V:1] G2c4B2 | 
[V:2] z2g3fd2 | 
[V:3] c2_e2d2d2 | 
[V:4] G2C2G4 | 
[V:5] z8 | 
[V:6] C,4z4 | 
[V:1] c2_e2d2c2- | 
[V:2] e2g3ff2- | 
[V:3] c4z2F2 | 
[V:4] C2c2B2A2 | 
[V:5] z8 | 
[V:6] z8 | 
[V:1] cBB4A2 | 
[V:2] f2e2f4 | 
[V:3] B4c4 | 
[V:4] G4F4 | 
[V:5] z8 | 
[V:6] z8 | 
[V:1] B8 | 
[V:2] d8- | 
[V:3] B4z4 | 
[V:4] B4B2B2 | 
[V:5] G,4F,2G,2- | 
[V:6] G,,4B,,2G,,2 | 
[V:1] z8 | 
[V:2] d4z4 | 
[V:3] z8 | 
[V:4] B4B4 | 
[V:5] G,2F,E,F,2G,2- | 
[V:6] B,,3C,D,2_E,2- | 
[V:1] z8 | 
[V:2] z8 | 
[V:3] z8 | 
[V:4] B4A4 | 
[V:5] G,2F,2E,2F,2 | 
[V:6] E,2D,2C,2D,2 | 
[V:1] z8 | 
[V:2] z8 | 
[V:3] z8 | 
[V:4] G4^F4 | 
[V:5] D,2E,2C,4 | 
[V:6] B,,2C,2A,,4 | 
[V:1] B4B2B2 | 
[V:2] g4f2g2- | 
[V:3] z2G2B2G2 | 
[V:4] G4z4 | 
[V:5] D,4z4 | 
[V:6] G,,4z4 | 
[V:1] B4B4 | 
[V:2] g2fef2g2- | 
[V:3] B3cd2_e2- | 
[V:4] z8 | 
[V:5] z8 | 
[V:6] z8 | 
[V:1] B4A4 | 
[V:2] g2f2e2f2 | 
[V:3] e2d2c2d2 | 
[V:4] z8 | 
[V:5] z8 | 
[V:6] z8 | 
[V:1] G4^F4 | 
[V:2] d2e2c4 | 
[V:3] B2c2A4 | 
[V:4] z4A4 | 
[V:5] z8 | 
[V:6] z8 | 
[V:1] G8 | 
[V:2] d8 | 
[V:3] G8 | 
[V:4] B4G2B2- | 
[V:5] D,8 | 
[V:6] G,,8 | 
[V:1] F8 | 
[V:2] d8 | 
[V:3] z8 | 
[V:4] B2AGA2F2 | 
[V:5] F,8 | 
[V:6] D,8 | 
[V:1] G8 | 
[V:2] e8 | 
[V:3] z8 | 
[V:4] c8 | 
[V:5] E,2G,3F,E,D, | 
[V:6] C,6B,,2 | 
[V:1] A8 | 
[V:2] e4f4 | 
[V:3] z4F4 | 
[V:4] c6c2 | 
[V:5] C,8- | 
[V:6] A,,4F,,4 | 
[V:1] G4B4 | 
[V:2] e4d4- | 
[V:3] G8 | 
[V:4] c4B4 | 
[V:5] C,4D,4- | 
[V:6] C,4G,,4 | 
[V:1] A2G4^F2 | 
[V:2] d2d2d4 | 
[V:3] A8 | 
[V:4] d6d2 | 
[V:5] D,2E,2F,4 | 
[V:6] D,8 | 
[V:1] G8- | 
[V:2] B2d4d2 | 
[V:3] G8- | 
[V:4] d4B4- | 
[V:5] D,4z2G,2- | 
[V:6] G,,8- | 
[V:1] G8- | 
[V:2] d4B4- | 
[V:3] G8- | 
[V:4] B2AGB3c | 
[V:5] G,2G,2G,4 | 
[V:6] G,,8- | 
[V:1] G8 ||  
[V:2] B8 ||  
[V:3] G8 ||  
[V:4] d8 ||  
[V:5] D,8 ||  
[V:6] G,,8 ||  
[V:1]  [K:F] [K:clef=treble][M:2/1]A4D2B2- | 
[V:2]  [K:F] [K:clef=treble-8][M:2/1]z8 | 
[V:3]  [K:F] [K:clef=treble-8][M:2/1]z8 | 
[V:4]  [K:F] [K:clef=treble-8][M:2/1]z8 | 
[V:5]  [K:F] [K:clef=bass][M:2/1]z8 | 
[V:6]  [K:F] [K:clef=bass][M:2/1]z8 | 
[V:1] BAG4FE | 
[V:2] z8 | 
[V:3] z8 | 
[V:4] z8 | 
[V:5] z8 | 
[V:6] z8 | 
[V:1] F4G4- | 
[V:2] d4G2_e2- | 
[V:3] z8 | 
[V:4] z8 | 
[V:5] z8 | 
[V:6] z8 | 
[V:1] G2A4GF | 
[V:2] edc4BA | 
[V:3] z8 | 
[V:4] z8 | 
[V:5] z8 | 
[V:6] z8 | 
[V:1] G2F2E4 | 
[V:2] BAd4^c2 | 
[V:3] z8 | 
[V:4] z8 | 
[V:5] z8 | 
[V:6] z4A,4 | 
[V:1] D8 | 
[V:2] d3ef2g2 | 
[V:3] z8 | 
[V:4] z8 | 
[V:5] z8 | 
[V:6] D,2B,3A,G,2- | 
[V:1] z4A4 | 
[V:2] d2f3edc | 
[V:3] z8 | 
[V:4] z8 | 
[V:5] z8 | 
[V:6] G,2F,E,F,4 | 
[V:1] D2B3AG2- | 
[V:2] B2d3cB2- | 
[V:3] z8 | 
[V:4] z8 | 
[V:5] z8 | 
[V:6] G,8 | 
[V:1] G2^FEF4 | 
[V:2] B2AGA4 | 
[V:3] z8 | 
[V:4] z8 | 
[V:5] z8 | 
[V:6] z4D,4 | 
[V:1] G8 | 
[V:2] G3AB2c2 | 
[V:3] z8 | 
[V:4] z8 | 
[V:5] z8 | 
[V:6] G,,2_E,3D,C,2- | 
[V:1] z2D4E2 | 
[V:2] G2B4AG | 
[V:3] z8 | 
[V:4] z8 | 
[V:5] z8 | 
[V:6] C,2B,,A,,B,,2C,2 | 
[V:1] F2G4FE | 
[V:2] F2B4A2 | 
[V:3] z8 | 
[V:4] z8 | 
[V:5] z8 | 
[V:6] D,2B,,2C,4 | 
[V:1] D2d2B2d2- | 
[V:2] B8- | 
[V:3] z8 | 
[V:4] z8 | 
[V:5] z8 | 
[V:6] B,,8 | 
[V:1] dcB4AG | 
[V:2] B8 | 
[V:3] z8 | 
[V:4] z8 | 
[V:5] z8 | 
[V:6] z2B,2G,2B,2- | 
[V:1] F2G2D4- | 
[V:2] z2d2B2d2- | 
[V:3] z8 | 
[V:4] z8 | 
[V:5] z8 | 
[V:6] B,A,G,4F,E, | 
[V:1] D4z4 | 
[V:2] dcB4AG | 
[V:3] z8 | 
[V:4] z8 | 
[V:5] z8 | 
[V:6] D,2G,,2B,,2C,2 | 
[V:1] A8 | 
[V:2] F2f3ec2 | 
[V:3] z8 | 
[V:4] z8 | 
[V:5] z8 | 
[V:6] D,3C,D,E,F,2- | 
[V:1] G4A4 | 
[V:2] d2e2c2f2- | 
[V:3] z8 | 
[V:4] z8 | 
[V:5] z8 | 
[V:6] F,2E,2F,2A,2 | 
[V:1] B4A4- | 
[V:2] f2e2f3e/d/ | 
[V:3] z8 | 
[V:4] z8 | 
[V:5] z8 | 
[V:6] G,4F,4- | 
[V:1] A2F2G4 | 
[V:2] c2d4^c2 | 
[V:3] z8 | 
[V:4] z8 | 
[V:5] z8 | 
[V:6] F,4E,4 | 
[V:1] F4z2F2 | 
[V:2] d4A4- | 
[V:3] z8 | 
[V:4] z8 | 
[V:5] z8 | 
[V:6] z2D,4D,2 | 
[V:1] E2F2G2E2- | 
[V:2] A4G4 | 
[V:3] z8 | 
[V:4] z8 | 
[V:5] z8 | 
[V:6] C,2D,2B,,2C,2- | 
[V:1] E2F2D2F2- | 
[V:2] A4B4 | 
[V:3] z8 | 
[V:4] z8 | 
[V:5] z8 | 
[V:6] C,2D,2G,,2D,2- | 
[V:1] F2E2C2F2- | 
[V:2] A6F2 | 
[V:3] z8 | 
[V:4] z8 | 
[V:5] z8 | 
[V:6] D,2C,2F,2D,2 | 
[V:1] F2E2F2D2 | 
[V:2] G4F4 | 
[V:3] z8 | 
[V:4] z8 | 
[V:5] z8 | 
[V:6] C,4z2B,,2 | 
[V:1] F3GA2B2 | 
[V:2] d8 | 
[V:3] z8 | 
[V:4] z8 | 
[V:5] z8 | 
[V:6] B,,C,D,E,F,2G,2 | 
[V:1] c2A4B2 | 
[V:2] c4d4 | 
[V:3] z8 | 
[V:4] z8 | 
[V:5] z8 | 
[V:6] E,2F,4G,2 | 
[V:1] G2B4A2 | 
[V:2] _e4d4- | 
[V:3] z8 | 
[V:4] z8 | 
[V:5] z8 | 
[V:6] C,2G,4F,2 | 
[V:1] F2B4A2 | 
[V:2] d2B2c4 | 
[V:3] z8 | 
[V:4] z8 | 
[V:5] z8 | 
[V:6] B,2G,2F,4 | 
[V:1] B8 | 
[V:2] B8- | 
[V:3] z8 | 
[V:4] z8 | 
[V:5] z8 | 
[V:6] z2G,3F,D,2 | 
[V:1] z2G3FD2 | 
[V:2] B8 | 
[V:3] z8 | 
[V:4] z8 | 
[V:5] z8 | 
[V:6] _E,3D,B,,4 | 
[V:1] _E3DB,2B2- | 
[V:2] z2g3fd2 | 
[V:3] z8 | 
[V:4] z8 | 
[V:5] z8 | 
[V:6] C,4G,,4 | 
[V:1] B2c2G2B2- | 
[V:2] _e3dB2d2- | 
[V:3] z8 | 
[V:4] z8 | 
[V:5] z8 | 
[V:6] z4z2B,,2- | 
[V:1] BAF2G2DE | 
[V:2] dcA2B3A | 
[V:3] z8 | 
[V:4] z8 | 
[V:5] z8 | 
[V:6] B,,C,D,2G,,A,,B,,C, | 
[V:1] FGA3GG2- | 
[V:2] F2c3BG2 | 
[V:3] z8 | 
[V:4] z8 | 
[V:5] z8 | 
[V:6] D,2C,2_E,4 | 
[V:1] G2^F2G4 ||  
[V:2] A4G4 ||  
[V:3] z8 ||  
[V:4] z8 ||  
[V:5] z8 ||  
[V:6] D,4G,,4 ||  
[V:1]  [K:F] [K:clef=treble][M:2/1]z8 | 
[V:2]  [K:F] [K:clef=treble-8][M:2/1]z8 | 
[V:3]  [K:F] [K:clef=treble-8][M:2/1]z8 | 
[V:4]  [K:F] [K:clef=treble-8][M:2/1]z4B3c | 
[V:5]  [K:F] [K:clef=bass][M:2/1]B,,3C,D,2G,,2 | 
[V:6]  [K:F] [K:clef=bass][M:2/1]z4B,,4- | 
[V:1] z8 | 
[V:2] z8 | 
[V:3] z8 | 
[V:4] d2G2B3c | 
[V:5] B,,3C,D,2G,,2 | 
[V:6] B,,4B,,4 | 
[V:1] z8 | 
[V:2] z8 | 
[V:3] z8 | 
[V:4] d2D2EFGA | 
[V:5] B,3A,G,2E,2 | 
[V:6] B,,4C,4 | 
[V:1] z8 | 
[V:2] z8 | 
[V:3] z8 | 
[V:4] Bcd4cB | 
[V:5] F,2D,4G,2- | 
[V:6] B,,2B,,4A,,G,, | 
[V:1] z4B4- | 
[V:2] z4B3c | 
[V:3] z8 | 
[V:4] c4z2B2- | 
[V:5] G,2^F,2G,4- | 
[V:6] A,,4G,,4- | 
[V:1] B4B4 | 
[V:2] d2G2B3c | 
[V:3] B3cd2G2 | 
[V:4] Bcd2G2B2- | 
[V:5] G,8- | 
[V:6] G,,8- | 
[V:1] B8 | 
[V:2] d2G2z2g2- | 
[V:3] B3cd2G2 | 
[V:4] Bcd2G2d2- | 
[V:5] G,4z4 | 
[V:6] G,,4z4 | 
[V:1] c4B4- | 
[V:2] g2f2g2GA | 
[V:3] A4G2G2- | 
[V:4] d2c2d4- | 
[V:5] z8 | 
[V:6] z8 | 
[V:1] B2AGA4 | 
[V:2] Bcdef4- | 
[V:3] G2FED4 | 
[V:4] d2d3cA2 | 
[V:5] z8 | 
[V:6] z8 | 
[V:1] D2d2c2d2- | 
[V:2] f2f2f4 | 
[V:3] z8 | 
[V:4] B4A2B2 | 
[V:5] z8 | 
[V:6] z8 | 
[V:1] d2cBA3G | 
[V:2] g4f2f2- | 
[V:3] z8 | 
[V:4] G4z2D2 | 
[V:5] z8 | 
[V:6] z8 | 
[V:1] A2B2G4 | 
[V:2] fed4^c2 | 
[V:3] z8 | 
[V:4] F2G2E4 | 
[V:5] z8 | 
[V:6] z8 | 
[V:1] F4z4 | 
[V:2] d6g2- | 
[V:3] A4B2G2 | 
[V:4] D4z4 | 
[V:5] z2F,2G,2E,2 | 
[V:6] z8 | 
[V:1] A4B2G2 | 
[V:2] gef2d2g2- | 
[V:3] A4G4 | 
[V:4] d4B2c2 | 
[V:5] D,4z4 | 
[V:6] z2F,2G,2E,2 | 
[V:1] A4G4 | 
[V:2] gef2d2g2- | 
[V:3] d4z4 | 
[V:4] A2A2B2G2 | 
[V:5] z2F,2G,2E,2 | 
[V:6] D,4z4 | 
[V:1] z2A2B2G2 | 
[V:2] gef2d2e2 | 
[V:3] d4B2c2 | 
[V:4] A2A2G4 | 
[V:5] D,4z4 | 
[V:6] z2F,2G,2E,2 | 
[V:1] A4A4 | 
[V:2] f8 | 
[V:3] A2A4F2 | 
[V:4] d4d2d2- | 
[V:5] z2D,2A,3G, | 
[V:6] D,8 | 
[V:1] D4z4 | 
[V:2] f4e4 | 
[V:3] A2B2c4 | 
[V:4] dcB4A2 | 
[V:5] F,2D,2E,4 | 
[V:6] D,4C,4 | 
[V:1] d4d2d2 | 
[V:2] d8 | 
[V:3] d4D4- | 
[V:4] B4z2B2- | 
[V:5] F,3E,F,2G,2- | 
[V:6] B,,8 | 
[V:1] B6AG | 
[V:2] d8 | 
[V:3] D8 | 
[V:4] B2AGB3c | 
[V:5] G,2F,E,D,4- | 
[V:6] G,,4D,4- | 
[V:1] F2G4^F2 | 
[V:2] d8 | 
[V:3] z4z2d2 | 
[V:4] A2G2A4 | 
[V:5] D,2E,2F,4 | 
[V:6] D,8 | 
[V:1] G4z2d2 | 
[V:2] z2d2B2d2- | 
[V:3] B2d3cB2- | 
[V:4] G8- | 
[V:5] D,4z2B,2 | 
[V:6] G,,8- | 
[V:1] B2d3cB2- | 
[V:2] dcBAG4- | 
[V:3] BAGF/E/D4 | 
[V:4] G8 | 
[V:5] G,2B,3A,G,2- | 
[V:6] G,,8- | 
[V:1] B2AGF2G2- | 
[V:2] G4A2c2 | 
[V:3] d6e2 | 
[V:4] z8 | 
[V:5] G,2F,E,D,2C,2 | 
[V:6] G,,8- | 
[V:1] GFB4A2 | 
[V:2] d2e2f4 | 
[V:3] d2B2c4 | 
[V:4] z8 | 
[V:5] G,4F,4 | 
[V:6] G,,8 | 
[V:1] B8- | 
[V:2] d8 | 
[V:3] B4z4 | 
[V:4] z2d2B2d2- | 
[V:5] B,,4z4 | 
[V:6] z2B,2G,2B,2- | 
[V:1] B4z4 | 
[V:2] z8 | 
[V:3] z2d2B2d2- | 
[V:4] dcB4AG | 
[V:5] z8 | 
[V:6] B,A,G,4F,E, | 
[V:1] z8 | 
[V:2] z8 | 
[V:3] dcB4AG | 
[V:4] F2G4FE | 
[V:5] z8 | 
[V:6] D,2G,,4A,,2 | 
[V:1] z8 | 
[V:2] z8 | 
[V:3] F2A3GG2- | 
[V:4] D2E2F2G2 | 
[V:5] z8 | 
[V:6] B,,2C,2D,2B,,2 | 
[V:1] z4z2d2 | 
[V:2] z8 | 
[V:3] G2^F2G4- | 
[V:4] A4D4- | 
[V:5] z4z2B,2 | 
[V:6] A,,4G,,4- | 
[V:1] B2d3cB2- | 
[V:2] z4z2d2 | 
[V:3] G8 | 
[V:4] D8 | 
[V:5] G,2B,3A,G,2- | 
[V:6] G,,8 | 
[V:1] B2AGF2G2 | 
[V:2] B2d3cB2- | 
[V:3] z8 | 
[V:4] z8 | 
[V:5] G,2F,E,D,2G,,2 | 
[V:6] z8 | 
[V:1] D2E2FGAF | 
[V:2] B2AGF2f2 | 
[V:3] z8 | 
[V:4] z8 | 
[V:5] B,,2C,2D,4 | 
[V:6] z8 | 
[V:1] G2F2E4 | 
[V:2] e2d4^c2 | 
[V:3] z4E4 | 
[V:4] z4A4- | 
[V:5] C,2D,2A,,2A,2- | 
[V:6] z4A,,4 | 
[V:1] D2d4B2 | 
[V:2] d8 | 
[V:3] F4D4 | 
[V:4] A4B4 | 
[V:5] A,2F,2G,4 | 
[V:6] D,4G,,4 | 
[V:1] c8 | 
[V:2] z4e4 | 
[V:3] E8 | 
[V:4] G4A4- | 
[V:5] C,2C3B,A,G, | 
[V:6] C,4A,,4 | 
[V:1] A4B4 | 
[V:2] f4d4 | 
[V:3] D2d4B2 | 
[V:4] A4G4- | 
[V:5] F,G,A,F,G,4 | 
[V:6] D,4G,,4 | 
[V:1] G4A4- | 
[V:2] e8 | 
[V:3] c8 | 
[V:4] G4z4 | 
[V:5] E,8 | 
[V:6] C,4A,,4 | 
[V:1] A4D4 | 
[V:2] d2f4ed | 
[V:3] A2A4G2 | 
[V:4] z8 | 
[V:5] F,4D,4 | 
[V:6] D,4B,,4 | 
[V:1] z8 | 
[V:2] c2d4^c2 | 
[V:3] A8 | 
[V:4] z8 | 
[V:5] E,8 | 
[V:6] A,,8 | 
[V:1] [M:3/1]A8B4 | 
[V:2] [M:3/1]f8d4 | 
[V:3] [M:3/1]A8z4 | 
[V:4] [M:3/1]d8B4 | 
[V:5] [M:3/1]D,8z4 | 
[V:6] [M:3/1]z12 | 
[V:1] G4c4B2A2 | 
[V:2] e3fg2e2f4 | 
[V:3] z12 | 
[V:4] c8d4 | 
[V:5] z12 | 
[V:6] z12 | 
[V:1] A8G4 | 
[V:2] e4d8 | 
[V:3] z12 | 
[V:4] c4B8 | 
[V:5] z12 | 
[V:6] z12 | 
[V:1] A8z4 | 
[V:2] d12 | 
[V:3] A8B4 | 
[V:4] A8z4 | 
[V:5] F,8D,4 | 
[V:6] D,8B,,4 | 
[V:1] z12 | 
[V:2] z12 | 
[V:3] G4c4B2A2 | 
[V:4] z12 | 
[V:5] E,3F,G,2E,2F,4 | 
[V:6] C,8D,4 | 
[V:1] z12 | 
[V:2] z12 | 
[V:3] A6F2G4 | 
[V:4] z12 | 
[V:5] E,8D,4 | 
[V:6] C,4B,,8 | 
[V:1] A6B2c4 | 
[V:2] e4e4e4 | 
[V:3] A12 | 
[V:4] c4c4A4 | 
[V:5] E,12 | 
[V:6] A,,12 | 
[V:1] d3cB3AG4 | 
[V:2] d3ef2d2e4 | 
[V:3] z12 | 
[V:4] B8c4 | 
[V:5] z12 | 
[V:6] z12 | 
[V:1] B4A2G4^F2 | 
[V:2] d4e4c3d | 
[V:3] z4z4A4 | 
[V:4] B4c4A4 | 
[V:5] z12 | 
[V:6] z12 | 
[V:1] G8z4 | 
[V:2] e12 | 
[V:3] c8c4 | 
[V:4] G8z4 | 
[V:5] G,4G,4A,3G, | 
[V:6] C,4C,4A,,4 | 
[V:1] z12 | 
[V:2] z12 | 
[V:3] d3cB3AG4 | 
[V:4] z12 | 
[V:5] F,3E,D,4E,4 | 
[V:6] B,,8C,4 | 
[V:1] z12 | 
[V:2] z4z4A4 | 
[V:3] B4A2G4^F2 | 
[V:4] z12 | 
[V:5] D,4E,4C,4 | 
[V:6] B,,4C,4A,,4 | 
[V:1] z12 | 
[V:2] B4G3AB3c | 
[V:3] G12 | 
[V:4] d8G4 | 
[V:5] D,8z4 | 
[V:6] G,,12 | 
[V:1] F8B4 | 
[V:2] d8z4 | 
[V:3] z4z4d4 | 
[V:4] A4B8 | 
[V:5] D,8G,,4 | 
[V:6] z4z4G,4 | 
[V:1] G4A8 | 
[V:2] c8f4 | 
[V:3] =e3dc3BA4 | 
[V:4] c8d4 | 
[V:5] C,4A,,4D,4 | 
[V:6] E,4F,8 | 
[V:1] G8z4 | 
[V:2] d4e8 | 
[V:3] B4G8 | 
[V:4] B4c8 | 
[V:5] G,,4C,8 | 
[V:6] G,4E,8 | 
[V:1] F8B4 | 
[V:2] d8z4 | 
[V:3] z4z4d4 | 
[V:4] A8B4 | 
[V:5] D,8G,4 | 
[V:6] F,4D,4G,,4 | 
[V:1] G4A8 | 
[V:2] c8f4 | 
[V:3] e3dc3BA4 | 
[V:4] c8d4 | 
[V:5] E,4F,8 | 
[V:6] C,4A,,4D,4 | 
[V:1] G12 | 
[V:2] d4e8 | 
[V:3] B4G8- | 
[V:4] B4c8 | 
[V:5] G,4E,6F,2 | 
[V:6] G,,4C,8 | 
[V:1] [M:2/1]B8 | 
[V:2] [M:2/1]d8 | 
[V:3] [M:2/1]G8 | 
[V:4] [M:2/1]B2G2B3c | 
[V:5] [M:2/1]G,8 | 
[V:6] [M:2/1]G,,8 | 
[V:1] A8 | 
[V:2] f8 | 
[V:3] A4F3G | 
[V:4] d8- | 
[V:5] D,8 | 
[V:6] z4D,4- | 
[V:1] d8- | 
[V:2] f8- | 
[V:3] A2B4A2 | 
[V:4] d8 | 
[V:5] z4F,4- | 
[V:6] D,8 | 
[V:1] d8 | 
[V:2] f4z2f2- | 
[V:3] B6F2 | 
[V:4] d6B2 | 
[V:5] F,4D,4 | 
[V:6] B,,8 | 
[V:1] c8 | 
[V:2] f2ede4 | 
[V:3] c6c2- | 
[V:4] A2GFG4 | 
[V:5] E,4-E,2C,2 | 
[V:6] C,8 | 
[V:1] A4c4- | 
[V:2] f8 | 
[V:3] cBAGF4 | 
[V:4] F8 | 
[V:5] C,4z2C,2- | 
[V:6] F,,8 | 
[V:1] c4G4- | 
[V:2] e8 | 
[V:3] G4c4 | 
[V:4] z4G4 | 
[V:5] C,2D,2E,2C,2 | 
[V:6] C,8 | 
[V:1] G4d4- | 
[V:2] d8- | 
[V:3] B8- | 
[V:4] G8- | 
[V:5] G,8 | 
[V:6] G,,8- | 
[V:1] d4B4 | 
[V:2] d8- | 
[V:3] B8- | 
[V:4] G8- | 
[V:5] D,8- | 
[V:6] G,,8- | 
[V:1] B8 |]  
[V:2] d8 |]  
[V:3] B8 |]  
[V:4] G8 |]  
[V:5] D,8 |]  
[V:6] G,,8 |]  



